X:1
T:Sepulto Domino - Victoria
T:#
%%score [ 1 2 3 4 ]
L:1/8
Q:1/4=200
M:none
K:F
V:1 treble nm="Soprano" snm="S"
V:2 treble nm="Alto" snm="A"
V:3 treble-8 nm="Tenor" snm="T"
V:4 bass nm="Bass" snm="B"
V:1
"^Tomas Luis deVictoria\n(1548-1611)""^Sepulto Domino" z8 d8- | d8 d8 | c8 B8- | B4 A4 A8 | %4
w: Se\-|* pul-|to Do\-|* mi- no,|
 z4 A4 B4 c4 |[M:4/2] d8 B8 | G8 F8 | F16 | z8 z4 B4 | B4 A4 B4 c4 | d8 z4 d4 | d4 d4 d8 | d12 d4 | %13
w: si- gna- tum|est mo-|nu- men-|tum,|vol-|ven- tes la- pi-|dem ad|o- sti- um|mo- nu-|
 c16 | =B16!fine! |] d8 d4 d4 | (f6 e2 d4 c4 | d4 _e6 d2 d4- | d4) c4 d8- | d8 z8 | z16 | %21
w: men-|ti:|Po- nen- tes|mi\- * * *||* li- tes,|||
 z4 A4 A4 A4 | (B2 c2 d2 B2 c2 d2 _e4- | e4) d4 _e8 | d24 ||[M:4/2] z16 | z16 | z16 | z16 | z16 | %30
w: qui cu- sto-|di\- * * * * * *|* rent il-|lum.||||||
 z16 | z16 |[M:4/2] z16 | z16 | z16 | z16 | z16 |[M:4/2] d8 d4 d4 | (f6 e2 d4 c4 | d4 _e6 d2 d4- | %40
w: |||||||Po- nen- tes|mi\- * * *||
 d4) c4 d8- | d8 z8 | z16 | z4 A4 A4 A4 | (B2 c2 d2 B2 c2 d2 _e4- | e4) d4 _e8 |"^al fine" d24 |] %47
w: * li- tes,|||qui cu- sto-|di\- * * * * * *|* rent il-|lum.|
V:2
 G16 | B16 | A8 G8- | G4 ^F4 F8 | z4 F4 G4 A4 |[M:4/2] B4 B,8 D4 | (_E8 C8) | D8 z8 | z8 z4 G4 | %9
w: Se-|pul-|to Do\-|* mi- no,|si- gna- tum|est mo- nu-|men\- *|tum,|vol-|
 G4 ^F4 G4 A4 | B4 G4 B8- | B4 A4 A8 | B12 B4 | (A4 G8 ^F4) | G16 |] z16 | A8 A4 A4 | =B4 c4 A8 | %18
w: ven- tes la- pi-|dem ad o\-|* sti- um|mo- nu-|men\- * *|ti:||Po- nen- tes|mi- li- tes,|
 z4 G4 G4 G4 | (B6 A2 G4 F4) | G4 (A6 G2 G4- | G4 ^F2 E2 F8) | G16- | G16 | G24 ||"^Trio" z16 | %26
w: qui cu- sto-|di\- * * *|rent il\- * *||lum.||||
 z16 | z16 | z16 | z16 | z16 | z16 | z16 | (E8 F4) D4 | (G2 F2 E2 D2 C4) D4 | (_E4 D8 C4) | D16 | %37
w: |||||||Pe\- * ti-|e\- * * * * runt|il\- * *|lum.|
 z16 | A8 A4 A4 | =B4 c4 A8 | z4 G4 G4 G4 | (B6 A2 G4 F4) | G4 (A6 G2 G4- | G4 ^F2 E2 F8) | G16- | %45
w: |Po- nen- tes|mi- li- tes,|qui cu- sto-|di\- * * *|rent il\- * *||lum.|
 G16 | G24 |] %47
w: ||
V:3
 z8 g8- | g8 f8 | f8 d8- | d4 d4 d8 | z4 d4 d4 f4 |[M:4/2][K:treble-8] f4 d8 B4 | (c4 B8 A4) | %7
w: Se\-|* pul-|to Do\-|* mi- no,|si- gna- tum|est mo- nu-|men\- * *|
 B4 d4 d4 c4 | d4 _e4 d8 | z16 | z4 d4 g8- | g4 ^f4 f8 | g8 f4 (f4- | f4 e2 d2 c8) | d16 |] z8 d8 | %16
w: tum, vol- ven- tes|la- pi- dem,||ad o\-|* sti- um|mo- nu- men\-||ti:|Po-|
 d4 d4 (f6 e2 | d4 c4 d8) | _e8 d4 B4 | B4 B4 (d6 c2) | (B4 A4) (B2 c2 d2 B2 | c8) A4 d4 | %22
w: nen- tes mi\- *||li- tes, qui|cu- sto- di\- *|* rent il\- * * *|* lum, qui|
 d4 d4 (_e6 d2 | c4) =B4 (c8- | c4 =B4) B16 || d16 | e8 f8 | d8 z4 g4- | g4 g4 e8 | f12 f4 | %30
w: cu- sto- di\- *|* rent il\-|* * lum.|Ac-|ce- den-|tes Prin\-|* ci- pes|sa- cer-|
 f8 d4 (f4- | f4 e2 d2 c4) d4 | (e4 f6 e2 d4- | d4 ^c4) d8 | z4 G4 A8 | B4 B4 G8 | A16 | z8 d8 | %38
w: do- tum ad|* * * * Pi-|la\- * * *|* * tum,|pe- ti-|e- runt il-|lum.|Po-|
 d4 d4 (f6 e2 | d4 c4 d8) | _e8 d4 B4 | B4 B4 (d6 c2) | B4 A4 (B2 c2 d2 B2 | c8) A4 d4 | %44
w: nen- tes mi\- *||li- tes, qui|cu- sto- di\- *|* rent il\- * * *|* lum, qui|
 d4 d4 (_e6 d2 | c4) =B4 (c8- | c4 =B4) B16 |] %47
w: cu- sto- di\- *|* rent il\-|* * lum.|
V:4
 z8 G,8- | G,8 B,8 | F,8 G,8- | G,4 D,4 D,8 | z4 D,4 G,4 F,4 |[M:4/2] B,8 G,8 | _E,8 F,8 | %7
w: Se\-|* pul-|to Do\-|* mi- no,|si- gna- tum|est mo-|nu- men-|
 B,,4 B,4 B,4 A,4 | B,4 C4 D4 G,4 | D6 C2 B,4 A,4 | G,8 z4 G,4 | D4 D4 D8 | G,8 B,8 | %13
w: tum, vol- ven- tes|la- pi- dem, vol-|ven- tes la- pi-|dem ad|o- sti- um|mo- nu-|
 (C6 B,2 A,8) | G,16 |] z16 | z16 | z16 | z8 G,8 | G,4 G,4 (B,6 A,2) | (G,4 ^F,4 G,8) | %21
w: men\- * *|ti:||||Po-|nen- tes mi\- *||
 A,8 D,4 D,4 | G,4 G,4 C,8- | C,4 G,4 C,8 | G,24 || z8 G,8- | G,8 A,8 | B,8 G,8 | C12 C4 | %29
w: li- tes, qui|cu- sto- di\-|* rent il-|lum.|Ac\-|* ce-|den- tes|Prin- ci-|
 A,8 B,8- | B,4 B,4 B,8 | G,4 (C8 B,2 A,2) | G,4 A,4 B,8 | A,8 z4 D,4 | E,8 F,4 D,4 | %35
w: pes sa\-|* cer- do-|turn ad * *|* Pi- la-|tum, pe-|ti- e- runt|
 (G,6 F,2 _E,8) | D,16 | z16 | z16 | z16 | z8 G,8 | G,4 G,4 (B,6 A,2) | (G,4 ^F,4 G,8) | %43
w: il\- * *|lum.||||Po-|nen- tes mi\- *||
 A,8 D,4 D,4 | G,4 G,4 C,8- | C,4 G,4 C,8 | G,24 |] %47
w: li- tes, qui|cu- sto- di\-|* rent il-|lum.|

